svg/device/bluetooth_line.svg

<?xml version="1.0" encoding="UTF-8"?>
<svg width="24px" height="24px" viewBox="0 0 24 24" version="1.1" xmlns="http://www.w3.org/2000/svg" xmlns:xlink="http://www.w3.org/1999/xlink">
    <title>bluetooth_line</title>
    <g id="页面-1" stroke="none" stroke-width="1" fill="none" fill-rule="evenodd">
        <g id="Device" transform="translate(-192.000000, -96.000000)">
            <g id="bluetooth_line" transform="translate(192.000000, 96.000000)">
                 <path d="M24,0 L24,24 L0,24 L0,0 L24,0 Z M12.5934901,23.257841 L12.5819402,23.2595131 L12.5108777,23.2950439 L12.4918791,23.2987469 L12.4918791,23.2987469 L12.4767152,23.2950439 L12.4056548,23.2595131 C12.3958229,23.2563662 12.3870493,23.2590235 12.3821421,23.2649074 L12.3780323,23.275831 L12.360941,23.7031097 L12.3658947,23.7234994 L12.3769048,23.7357139 L12.4804777,23.8096931 L12.4953491,23.8136134 L12.4953491,23.8136134 L12.5071152,23.8096931 L12.6106902,23.7357139 L12.6232938,23.7196733 L12.6232938,23.7196733 L12.6266527,23.7031097 L12.609561,23.275831 C12.6075724,23.2657013 12.6010112,23.2592993 12.5934901,23.257841 L12.5934901,23.257841 Z M12.8583906,23.1452862 L12.8445485,23.1473072 L12.6598443,23.2396597 L12.6498822,23.2499052 L12.6498822,23.2499052 L12.6471943,23.2611114 L12.6650943,23.6906389 L12.6699349,23.7034178 L12.6699349,23.7034178 L12.678386,23.7104931 L12.8793402,23.8032389 C12.8914285,23.8068999 12.9022333,23.8029875 12.9078286,23.7952264 L12.9118235,23.7811639 L12.8776777,23.1665331 C12.8752882,23.1545897 12.8674102,23.1470016 12.8583906,23.1452862 L12.8583906,23.1452862 Z M12.1430473,23.1473072 C12.1332178,23.1423925 12.1221763,23.1452606 12.1156365,23.1525954 L12.1099173,23.1665331 L12.0757714,23.7811639 C12.0751323,23.7926639 12.0828099,23.8018602 12.0926481,23.8045676 L12.108256,23.8032389 L12.3092106,23.7104931 L12.3186497,23.7024347 L12.3186497,23.7024347 L12.3225043,23.6906389 L12.340401,23.2611114 L12.337245,23.2485176 L12.337245,23.2485176 L12.3277531,23.2396597 L12.1430473,23.1473072 Z" id="MingCute" fill-rule="nonzero"></path>
                <path d="M12.6161,2.21201 L18.4934,6.62001 C19.0801,7.06002 19.0801,7.94002 18.4934,8.38001 L13.6667,12 L18.4934,15.62 C19.0801,16.06 19.0801,16.94 18.4934,17.38 L12.6161,21.788 C11.9501,22.2875 11.0001,21.8122 11.0001,20.98 L11.0001,14 L6.60006,17.3 C6.15823,17.6314 5.53143,17.5418 5.20006,17.1 C4.86869,16.6582 4.95823,16.0314 5.40006,15.7 L10.3334,12 L5.40006,8.30001 C4.95823,7.96864 4.86869,7.34184 5.20006,6.90001 C5.53143,6.45819 6.15823,6.36864 6.60006,6.70001 L11.0001,10 L11.0001,3.02001 C11.0001,2.18775 11.9502,1.71263 12.6161,2.21201 Z M13.0001,14 L13.0001,19 L16.3334,16.5 L13.0001,14 Z M13.0001,5.00001 L13.0001,10.00001 L16.3334,7.50001 L13.0001,5.00001 Z" id="形状" fill="#09244B"></path>
            </g>
        </g>
    </g>
</svg>

<svg xmlns="http://www.w3.org/2000/svg" width="24" height="24"><g fill="none" fill-rule="evenodd"><path d="M24 0v24H0V0h24ZM12.593 23.258l-.011.002-.071.035-.02.004-.014-.004-.071-.035c-.01-.004-.019-.001-.024.005l-.004.01-.017.428.005.02.01.013.104.074.015.004.012-.004.104-.074.012-.016.004-.017-.017-.427c-.002-.01-.009-.017-.017-.018Zm.265-.113-.013.002-.185.093-.01.01-.003.011.018.43.005.012.008.007.201.093c.012.004.023 0 .029-.008l.004-.014-.034-.614c-.003-.012-.01-.02-.02-.022Zm-.715.002a.023.023 0 0 0-.027.006l-.006.014-.034.614c0 .012.007.02.017.024l.015-.002.201-.093.01-.008.004-.011.017-.43-.003-.012-.01-.01-.184-.092Z"/><path fill="#09244B" d="m12.616 2.212 5.877 4.408a1.1 1.1 0 0 1 0 1.76L13.667 12l4.826 3.62a1.1 1.1 0 0 1 0 1.76l-5.877 4.408A1.01 1.01 0 0 1 11 20.98V14l-4.4 3.3a1 1 0 1 1-1.2-1.6l4.933-3.7L5.4 8.3a1 1 0 1 1 1.2-1.6L11 10V3.02c0-.832.95-1.307 1.616-.808ZM13 14v5l3.333-2.5L13 14Zm0-9v5l3.333-2.5L13 5Z"/></g></svg>
